X:1
T:Mir Ist Erbarmung Widerfahren, 98.98.88
T:Mir Ist Erbarmung Widerfahren, 98.98.88
T: Johann Ludwig Friedrich Hainlin, ca. 1790
T:Public Domain Courtesy of the Cyber Hymnal™
C:Johann Ludwig Friedrich Hainlin, ca. 1790
Z:Public Domain
Z:Courtesy of the Cyber Hymnal™
%%score ( 1 2 ) ( 3 4 )
L:1/8
M:3/4
K:G
V:1 treble 
V:2 treble 
V:3 bass 
V:4 bass 
V:1
 [B,D]2 [CE]2 [CF]2 | [B,G]4 [DB]2 | A2 G2 [DA]2 | [DB]2 [DA]4 | [FA]2 [GB]2 [Gc]2 | [Gd]4 [Ac]2 | %6
 [GB]4 [FA]2 | [DG]6 | [B,D]2 [CE]2 [CF]2 | [B,G]4 [DB]2 | A2 G2 [DA]2 | [DB]2 [DA]4 | %12
 [FA]2 [GB]2 [Gc]2 | [Gd]4 [Ac]2 | [GB]4 [FA]2 | [DG]6 | [GB]2 [GB]2 [GB]2 | d2 c2 [FA]2 | %18
 [Ac]2 [GB]2 G2 | [GB]2 [FA]4 | [Ge]2 [Gd]2 [Ac]2 | [GB]2 [FA]2 [EG]2 | [EA]2 [DG]2 [DF]2 | d6 | %24
 [Ee]2 [Gd]2 c2 | [GB]2 [FA]2 [EG]2 | [EA]2 [DG]2 [CF]2 | [B,G]6 |] %28
V:2
 x6 | x6 | D4 x2 | x6 | x6 | x6 | x6 | x6 | x6 | x6 | D4 x2 | x6 | x6 | x6 | x6 | x6 | x6 | A4 x2 | %18
 x4 G2 | x6 | x6 | x6 | x6 | D2 G2 =F2 | x4 GA | x6 | x6 | x6 |] %28
V:3
 [G,,G,]2 [C,G,]2 [A,,D,]2 | [G,,D,]4 [G,,G,]2 | F,2 E,2 [D,F,]2 | G,2 [D,F,]4 | %4
 [B,,D]2 [G,D]2 [E,C]2 | [B,,B,]4 [C,E]2 | [D,D]4 [D,C]2 | [G,B,]6 | [G,,G,]2 [C,G,]2 [A,,D,]2 | %9
 [G,,D,]4 [G,,G,]2 | F,2 E,2 [D,F,]2 | G,2 [D,F,]4 | [D,D]2 [G,D]2 [E,C]2 | [B,,B,]4 [C,E]2 | %14
 [D,D]4 [D,C]2 | [G,B,]6 | [G,D]2 [B,D]2 [G,D]2 | [F,D]4 [D,D]2 | [G,D]4 [E,^C]2 | [D,C]6 | %20
 [C,G,]2 [G,B,]2 [F,D]2 | [G,D]2 [D,C]2 [E,B,]2 | [C,C]2 [D,B,]2 [C,A,]2 | [B,,G,]6 | %24
 [C,C]2 [D,B,]2 [E,E][F,D] | [G,D]2 [D,C]2 [E,B,]2 | [C,C]2 [D,B,]2 [D,A,]2 | [G,,G,]6 |] %28
V:4
 x6 | x6 | D,4 x2 | G,2 x4 | x6 | x6 | x6 | x6 | x6 | x6 | D,4 x2 | G,2 x4 | x6 | x6 | x6 | x6 | %16
 x6 | x6 | x6 | x6 | x6 | x6 | x6 | x6 | x6 | x6 | x6 | x6 |] %28

